!!!!SEGMENT: pl-wumfc--r282--003-003_paderewski-ignacy-jan--exercise-3.krn
!!!cenid: 18xx:3198
!!!COM: Paderewski, Ignacy Jan
!!!COM-rismid: pe30029943
!!!CDT: 1860/11/18-1941/06/29
!!!CNT: Polish
!!!GTL: [Exercises 3]
!!!OTL: [Exercise 3]
!!!OMV: 003
!!!PDT:
!!!AGN:
!!!SMS-siglum: PL-Wumfc
!!!SMS-shelfmark: R282
!!!SMS-shelfwork: 003-003 G
!!!SMS-variant:
!!!SMS-altvar:
!!!NIFC-rismid: 1001158933
!!!URL-scan: http://repozytorium.nifc.pl/skany/pl-wumfc--r282
!!!ONB-nifc: UWAGA: druga grupa ćwiczeń od skanu 0011, prawa strona, 3 system. Nr 003 i 004 nienumerowane – skan 0012, lewa strona. Nr 010 nienumerowany – skan 0014, 3 pierwsze systemy
!!!key: F
**kern	**kern
*part2	*part1
*group1	*group1
*staff2	*staff1
*I"[Pianoforte]	*I"[Pianoforte]
*I'	*I'
*Ipiano	*Ipiano
*ICklav	*ICklav
*clefF4	*clefG2
*k[b-]	*k[b-]
*F:	*F:
*M	*M
4F\	2.cc/
4G\	.
[4A\	.
=1	=1
4A\]	2.a/
4F\	.
[4f\	.
4f\]	2.cc/
4e\	.
[4c\	.
=2	=2
4c\]	2.dd/
4B-\	.
[4f\	.
4f\]	2.cc/
4e\	.
[4a\	.
=3	=3
4a\]	2.b-/
4g\	.
[4d\	.
4d\]	2.a/
4c\	.
[4f\	.
=4	=4
4f\]	1.g
4e\	.
4d\	.
4c\	.
4d\	.
4e\	.
=5	=5
!LO:N:vis=2	!
2.f;\	2.f;/
4A\	2.a/
4Bn\	.
[4c\	.
=6	=6
4c\]	2.g/
!LO:TX:t=P:problem:dopisany dźwięk E	!
4d\	.
[4e\	.
4e\]	2.f/
4d\	.
[4B-\	.
!!linebreak:original
=7	=7
4B-\]	2.g/
4G\	.
[4g\	.
4g\]	2.a/
4f\	.
[4d\	.
=8	=8
4d\]	2.b-/
4B-\	.
[4d\	.
4d\]	2.a/
4c\	.
[4f\	.
=9	=9
4f\]	1.g;
4e\	.
4d\	.
2.c\	.
=10:|!	=10:|!
4e\	2.g/
4d\	.
[4c\	.
4c\]	2.g/
4B-\	.
[4G\	.
=11	=11
4G\]	2.a/
4F\	.
[4a\	.
4a\]	2.cc/
4f\	.
[4e\	.
=12	=12
4e\]	2.cc/
4f\	.
[4e\	.
4e\]	2.bn/
4d\	.
4Bn\	.
=13	=13
2.A\	2.cc;/
4A\	2.cc/
4Bn\	.
[4c\	.
!!linebreak:original
=14	=14
4c\]	2.a/
4a\	.
[4A\	.
4A\]	2.f/
4d\	.
[4B-\	.
=15	=15
4B-\]	2.dd/
4G\	.
[4g\	.
4g\]	2.b-/
4G\	.
[4d\	.
=16	=16
4d\]	2.a/
4c\	.
[4f\	.
4f\]	2.g/
4e\	.
4c\	.
=17	=17
2.f;\	2.f;/
==	==
*-	*-
!!!system-decoration: [g1]
!!!ENC: Katarzyna Serwa
!!!END: 2021-11-16
!!!ENC: Filip Voros
!!!END: 2021-11-13
